X: 493
T:Hags Purse
T:Bobby Caseys Jig
T:Roscommon Jig
Z:Peter Crummy <PCrummy:G-C.COM> irtrad-l 2001-12-6
R:jig
M:6/8
K:D
D | A2B =cAF | G2E EDE | =c2d cAG |\
A2D FED | A2B =cAF | GEE =cEE | DED D2 :|
A | d2e fed | e2 d cAF | G2 E EDE | =c2 d cAG |\
Add fed | e2 d cAF | GEE =cEE | DED D2 :|
K:Dmix
G | A2D FED | A2B cAF | G2E EDE | c2d cAG |\
A2D FED | A2B cAF | GEE cEE | DED D2 :|
c | d2e =fed | e2d cAF | G2E EDE | c2d cAG |\
d2e =fed | e2d cAF | GEE cEE | DED D2 :|
"Variation"
G | A2D FED | A2d cAF | G2E EDE | c2d cAG |\
A2D FED | A2d cAF | GFG cGE | EDD D2 :|
c | d2e fed | ged cAA | G2E EDE | c2d cAG |\
Add fed | ged cAA | GFG cGE | EDD D2 :|
"Variation by bobby Casey"
A2D FED | AdB cAF | GEE EDE | ~c2d cAG |\
A/2A/2AD FED | A2A cAF | GEE cGE | D^CE D2F |
[F2A2]D FED | A/2A/2AB cAF | GEE EDE | ~c2d cAG |\
ADD FED | AdB cAF | ~G2E cGE | D^CE DFG ||
d2e f2d | efd ^cAF | GEE EDE | c/2c/2cd cAG |\
Add fed | e2d ^cAF | GEE cGE | D^CE DFA |
d2e f2d | e2d ^cAF | ~G2E EDE | ~c2d cAG |\
Add fed | efd cAF | GEE cGE | D^CE D3 :|
